X:38
T:Caledonian Laddie. LIT.038, The
M:2/2
Q:1/4=170
L:1/8
B:Wm. Litten MS, 1802
Z:Village Music Project 2017 Anne Wride
K:D
FE |D3E FEFA | BABd e2f2 | dcBA BdAF | GB E2-EGFE |
D3E FEFA | BABd e2f2 | dcBA BdBG | FA D2 D2 :|
|:de | f2 f2 gfed | cdec A2 Bc | d2B2 Bcde | f2B2B2 cd |
A3B AFEF |D2d2d2cB | A2A2 BAGF | GBE2-EGFE |
D3E FEFA | d2 de f2 ^D2 | E3F GFGB | e2efg2ef |
gfed eBed | cAce A2 Bc | d2F2 EFGA | F2D2D2 :|

